icons/github-line.svg

<svg xmlns="http://www.w3.org/2000/svg" width="24" height="24" fill="none"><g clip-path="url(#a)"><g><path fill="#121212" d="M5.88298 18.653C5.58298 18.453 5.32498 18.198 5.02298 17.837C4.86622 17.6452 4.71089 17.4522 4.55698 17.258C4.09398 16.683 3.80198 16.418 3.49998 16.309C3.25028 16.2194 3.04641 16.0342 2.93324 15.7943C2.82006 15.5543 2.80684 15.2792 2.89648 15.0295C2.98612 14.7798 3.17129 14.576 3.41124 14.4628C3.65119 14.3496 3.92628 14.3364 4.17598 14.426C4.92798 14.696 5.43698 15.161 6.12298 16.014C6.02898 15.897 6.46298 16.441 6.55598 16.553C6.74598 16.78 6.88598 16.918 6.99598 16.991C7.19998 17.128 7.58298 17.187 8.14598 17.131C8.16898 16.749 8.23998 16.378 8.34798 16.036C5.37998 15.31 3.69998 13.396 3.69998 9.64002C3.69998 8.40002 4.06998 7.28402 4.75798 6.34802C4.53998 5.45402 4.57298 4.37302 5.05998 3.15602C5.11525 3.01836 5.20045 2.89471 5.30942 2.79405C5.41838 2.69339 5.54838 2.61823 5.68998 2.57402C5.77098 2.55002 5.81698 2.53902 5.89798 2.52702C6.70098 2.40402 7.83498 2.69702 9.31298 3.62302C10.1938 3.41711 11.0954 3.31375 12 3.31502C12.912 3.31502 13.818 3.41902 14.684 3.62302C16.161 2.69002 17.297 2.39702 18.106 2.52702C18.191 2.54002 18.263 2.55702 18.324 2.57702C18.4628 2.6228 18.5899 2.69846 18.6963 2.79867C18.8028 2.89887 18.8859 3.0212 18.94 3.15702C19.427 4.37302 19.46 5.45402 19.242 6.34702C19.933 7.28302 20.3 8.39202 20.3 9.64002C20.3 13.397 18.626 15.305 15.658 16.032C15.783 16.447 15.848 16.911 15.848 17.412C15.8481 18.3174 15.8441 19.2227 15.836 20.128C16.0606 20.177 16.2614 20.3019 16.4047 20.4816C16.548 20.6613 16.625 20.8849 16.6228 21.1147C16.6206 21.3446 16.5392 21.5667 16.3925 21.7436C16.2457 21.9205 16.0425 22.0414 15.817 22.086C14.678 22.314 13.834 21.554 13.834 20.561L13.836 20.115L13.841 19.41C13.846 18.702 13.848 18.072 13.848 17.412C13.848 16.715 13.665 16.26 13.423 16.052C12.762 15.482 13.097 14.397 13.963 14.3C16.93 13.967 18.3 12.818 18.3 9.64002C18.3 8.68502 17.988 7.89602 17.387 7.23602C17.2604 7.09727 17.1754 6.92565 17.1418 6.74083C17.1082 6.55602 17.1273 6.36547 17.197 6.19102C17.363 5.77702 17.434 5.23402 17.293 4.57702L17.283 4.58002C16.792 4.71902 16.173 5.02002 15.425 5.52902C15.3044 5.61088 15.1673 5.66537 15.0234 5.68869C14.8795 5.71201 14.7323 5.70359 14.592 5.66402C13.7479 5.43031 12.8758 5.31289 12 5.31502C11.11 5.31502 10.228 5.43402 9.40798 5.66502C9.2682 5.70428 9.12155 5.71263 8.97821 5.68949C8.83488 5.66635 8.69831 5.61227 8.57798 5.53102C7.82598 5.02402 7.20398 4.72402 6.70998 4.58402C6.56598 5.23702 6.63698 5.77802 6.80198 6.19102C6.87179 6.36538 6.89108 6.55587 6.85766 6.74068C6.82423 6.9255 6.73944 7.09716 6.61298 7.23602C6.01598 7.89002 5.69998 8.69402 5.69998 9.64002C5.69998 12.812 7.07098 13.968 10.022 14.3C10.887 14.397 11.223 15.477 10.566 16.048C10.374 16.216 10.137 16.78 10.137 17.412V20.562C10.137 21.548 9.30198 22.287 8.17698 22.09C7.94875 22.0499 7.74151 21.9319 7.5907 21.7559C7.43988 21.58 7.35484 21.3572 7.35012 21.1255C7.3454 20.8938 7.42128 20.6677 7.5648 20.4857C7.70832 20.3038 7.91057 20.1774 8.13698 20.128V19.138C7.22698 19.199 6.47498 19.05 5.88298 18.653Z"/></g></g><defs><clipPath id="a"><rect width="24" height="24" fill="white"/></clipPath></defs></svg>

<svg width="24" height="24" fill="none" xmlns="http://www.w3.org/2000/svg"><g clip-path="url(#a)"><path d="M5.883 18.653c-.3-.2-.558-.455-.86-.816a49.432 49.432 0 0 1-.466-.579c-.463-.575-.755-.84-1.057-.949a1 1 0 1 1 .676-1.883c.752.27 1.261.735 1.947 1.588-.094-.117.34.427.433.539.19.227.33.365.44.438.204.137.587.196 1.15.14.023-.382.094-.753.202-1.095C5.38 15.31 3.7 13.396 3.7 9.64c0-1.24.37-2.356 1.058-3.292-.218-.894-.185-1.975.302-3.192a1 1 0 0 1 .63-.582c.081-.024.127-.035.208-.047.803-.123 1.937.17 3.415 1.096.88-.206 1.782-.31 2.687-.308.912 0 1.818.104 2.684.308 1.477-.933 2.613-1.226 3.422-1.096.085.013.157.03.218.05a1 1 0 0 1 .616.58c.487 1.216.52 2.297.302 3.19.691.936 1.058 2.045 1.058 3.293 0 3.757-1.674 5.665-4.642 6.392.125.415.19.879.19 1.38 0 .905-.004 1.81-.012 2.716a1 1 0 0 1-.019 1.958c-1.139.228-1.983-.532-1.983-1.525l.002-.446.005-.705c.005-.708.007-1.338.007-1.998 0-.697-.183-1.152-.425-1.36-.661-.57-.326-1.655.54-1.752 2.967-.333 4.337-1.482 4.337-4.66 0-.955-.312-1.744-.913-2.404a1 1 0 0 1-.19-1.045c.166-.414.237-.957.096-1.614l-.01.003c-.491.139-1.11.44-1.858.949a1 1 0 0 1-.833.135A9.626 9.626 0 0 0 12 5.315c-.89 0-1.772.119-2.592.35a1 1 0 0 1-.83-.134c-.752-.507-1.374-.807-1.868-.947-.144.653-.073 1.194.092 1.607a1 1 0 0 1-.189 1.045C6.016 7.89 5.7 8.694 5.7 9.64c0 3.172 1.371 4.328 4.322 4.66.865.097 1.201 1.177.544 1.748-.192.168-.429.732-.429 1.364v3.15c0 .986-.835 1.725-1.96 1.528a1 1 0 0 1-.04-1.962v-.99c-.91.061-1.662-.088-2.254-.485Z" /></g><defs><clipPath id="a"><path fill="#fff" d="M0 0h24v24H0z"/></clipPath></defs></svg>
